X:1
T:Soprano i Basso continuo   "LA ROSA"
T:La Rosa
T:Sonate N°2 pour Soprano et Basse continue
T:A. CALDARA
T:jfC
T:jfC
T:jfC
T:jfC
T:jfC
Z:jfC
%%score 1 2
L:1/8
Q:1/4=48
M:4/4
K:Eb
V:1 treble nm="Soprano" snm="S."
V:2 bass nm="Harpsichord" snm="Hch."
V:1
"^ARIA""^Largetto, cosi, cosi" z4 z4 | z8 | z8 | z8 | e2 f>d e2 B2 | c2 B>A G>F E2 | e2 f>g f2 B2 | %7
 =A2 B>c !trill(!Tc3 B/!trill)!c/ | B4 z4 | z8 | z2 z2 B2 G>B | c2 A2 d2 B>d | e2 c2 f2 d>f | %13
 g2 f2 g2 f/e/d/c/ | B2 e>c d4 | e4 B2 G>E | c2 A>F d2 B>A | f>d e>f (G2 F2) | E4 z4 | z8 | z8 | %21
 z8 | z2 z2 c2 d>=B | c2 G2 d2 g>f | e>d c2 c2 d>e | d2 G>=A ^F2 G>A | %26
 !trill(!TA3 G/A/ !trill)!G4 | _d2 c>B A>G F2 | B2 c>d e>f g2 | f2 d>c =B>=A G2 | f2 e>d e>d c>d | %31
 =B4 c4 |][M:4/4]"^RECITATIF" GG z/ G/c/d/ =BB z B/B/ | =B2 Bc dd z d/d/ | d2 de f>=B Bc | %35
 cc z c/c/ c2 de | e=A z A cc z c/_A/ | FF z/ c/e/d/ dd z d | dccd BB z B | BBBc d>d cB | %40
 =AA z A/B/ c2 ed | BB z B defd | ee z2 f2 AB | GG z2 GG/G/ =AB | BF z2 !fermata!z4 | %45
[M:3/4]"^ARIA""^Tempo Di Minuetto" (E2 G2) B2 | d4 e2 | (f2 d2) B2 | G4 F2 | (E2 G2) B2 | d4 e2 | %51
 f2 g4 | f6 :: f2 d2 B2 | G4 g2 | g2 e2 c2 | A4 a2 | a2 f2 d2 | B4 g2 | e2 c2 A2 | F4 e2 | F2 d4 | %62
 e6 :: z6 | z6 | z6 | z6 | (g2 e2) c2 | =B4 c2 | (d2 =B2) G2 | F4 E2 | (G2 =B2) d2 | f4 g2 | %73
 e2 ed ef | d6 | (d2 =B2) G2 | E4 e2 | (e2 c2) A2 | F4 f2 | (f2 d2) =B2 | G4 e2 | (c2 A2) F2 | %82
 D4 c2 | D2 =B4 | c6 | z6 | z6 | z6 | z6 :| %89
V:2
 E2"C4 3" F>"C6 5"D E2 B,2 | C2 B,>A,"C6" G,>F, E,2 | E2"C6" F>"C6"G C>D E>A, | %3
"C6 4" B,2 B,,2 E,4 | E,2 B,,2 E,2 z2 | A,2 B,2 E,2 z2 | E,2 z2"C6" D,2 z2 | %7
"C6+ 4 3" C,2"C6" D,>E,"C4" F,2"C3" F,,2 | B,,4 B,2"C6" G,>B, |"C6" C2 A,>C"C6" D2 B,>D | %10
 E2 E,2"C6" G,2 z2 | A,2 z2 B,2 z2 |"C6" C2 z2 D,2 z2 | E,2"C7" B,,2 E,2 A,2- | %14
"C+4" A,2"C6" G,>A, B,2 B,,2 | E,2 E,>F,"C6" G,2 z2 | A,2 z2 B,2 z2 | %17
"C+4" A,2"C6" G,>A,"C6 4" B,2 B,,2 | E,4 E2 F>D | E2"C7" B,2 C2 B,>A, |"C6" G,>F, E,2 E2 F>G | %21
"C6" C>D E>A,"C6 4" B,2 B,,2 | !fermata!E,2 E,>D, C,2 G,2 | C,2 z2"C6" =B,,2 z2 | %24
 C,2 z2"C6" C2 z2 | B,2 z z/ C/ D2 G,2 |"C5 4-3" D2 D,2 G,2 G,>F, |"C7" =E,4 F,2 F,>_E, | %28
"C6" D,2 z z/ B,,/ E,2 z z/ E,/ |"C6" A,2"C6" F,2 G,2 z z/ G,/ | =A,2 =B,2 C2 z/ z/ z/"C6 3" F,/ | %31
 G,2"C7 +" G,,2 C,4 |][M:4/4]"C5""C7+" (C,8 |"C7+" (C,8) | (C,8) |"C5" C,8) |"C5" (F,8 | %37
"C7 3+" F,4) B,,4 |"C6" F,4 (B,,4 | B,,8) |"C6""C6 5" ^F,,8 | G,,4"C6 5" =B,,4 | C,4"C6 5" D,4 | %43
"C5""C6 +4" E,8 |"C6 4""C5" F,4 !fermata!B,,4 |[M:3/4] E,4 z2 | F,4 G,2 | A,2 B,4 | E,4 B,,2 | %49
 E,4 z2 | F,4 E,2 | D,2 E,4 | B,,6 :: B,,6 | E,6 | E,6 | F,6 | F,6 | G,6 | A,6 | B,4 G,2 | %61
 A,2 B,4 | E,6 :: E,2 G,2 B,2 | D4 E2 | A,2 F,2 B,2 | E,6 | E,4 A,2 | G,4 E,2 | F,2 G,4 | %70
 =A,2 =B,2 C2 | =B,6 | =A,4 =B,2 | C2 F,4 | G,2 D,2 =B,,2 | G,,6 | C,6 | C,6 | D,6 | D,6 | E,6 | %81
 F,6 | G,4 E,2 | F,2 G,4 | C,6 | E,2 G,2 B,2 | D4 E2 | A,2 F,2 B,2 | E,6 :| %89

